X: 4408
T: "KING PIPPIN" POLKA
R: Polka
%R: polka
B: James Kerr "Merry Melodies" v.4 p.45 #408
Z: 2016 John Chambers <jc:trillian.mit.edu>
M: 2/4
L: 1/16
K: G
|:\
D2DG B4 | c2cE B4 | B2A2 ABA2 | A2G2 GAG2 |\
D2DG B4 | c2cE B4 | B2A2 ABA2 | G2B2G2 z2 :|
|:\
ddd2 DDD2 | E2D2 DED2 | B2A2 ABA2 | A2G2 GAG2 |\
ddd2 DDD2 | E2D2 DED2 | B2A2 ABA2 | G2B2G2 z2 :|

%%sep 1 1 500
%%sep 1 1 500

